public/images/lukso.svg

<svg fill="none" height="96" viewBox="0 0 88 96" width="88" xmlns="http://www.w3.org/2000/svg"><path d="m79.3908 18.2146-27.7351-16.00532c-4.9112-2.845038-10.9827-2.845038-15.894 0l-27.73509 16.00532c-4.91126 2.845-7.9470202 8.09-7.9470202 13.7642v32.0265c0 5.6742 3.0357602 10.9192 7.9470202 13.7642l27.73509 16.0212c4.9113 2.8451 10.9828 2.8451 15.894 0l27.7351-16.0212c4.9113-2.845 7.9471-8.09 7.9471-13.7642v-32.0265c0-5.6742-3.0199-10.9192-7.9471-13.7642zm-13.6688 32.9642-8.249 14.2888c-1.1285 1.9708-3.2265 3.1788-5.4994 3.1788h-16.5139c-2.2728 0-4.3708-1.208-5.4993-3.1788l-8.2649-14.2888c-1.1285-1.9709-1.1285-4.3867 0-6.3576l8.249-14.2887c1.1285-1.9709 3.2265-3.1789 5.4993-3.1789h16.498c2.2729 0 4.3709 1.208 5.4994 3.1789l8.249 14.2887c1.1602 1.9709 1.1602 4.3867.0318 6.3576z" fill="#fe005b"/></svg>

<svg width="88" height="96" viewBox="0 0 88 96" fill="none" xmlns="http://www.w3.org/2000/svg">
<path d="M79.3908 18.2146L51.6557 2.20928C46.7445 -0.635758 40.673 -0.635758 35.7617 2.20928L8.02661 18.2146C3.11535 21.0596 0.0795898 26.3046 0.0795898 31.9788V64.0053C0.0795898 69.6795 3.11535 74.9245 8.02661 77.7695L35.7617 93.7907C40.673 96.6358 46.7445 96.6358 51.6557 93.7907L79.3908 77.7695C84.3021 74.9245 87.3379 69.6795 87.3379 64.0053V31.9788C87.3379 26.3046 84.318 21.0596 79.3908 18.2146ZM65.722 51.1788L57.473 65.4676C56.3445 67.4384 54.2465 68.6464 51.9736 68.6464H35.4597C33.1869 68.6464 31.0889 67.4384 29.9604 65.4676L21.6955 51.1788C20.567 49.2079 20.567 46.7921 21.6955 44.8212L29.9445 30.5325C31.073 28.5616 33.171 27.3536 35.4438 27.3536H51.9418C54.2147 27.3536 56.3127 28.5616 57.4412 30.5325L65.6902 44.8212C66.8504 46.7921 66.8504 49.2079 65.722 51.1788Z" fill="#FE005B"/>
</svg>
